svg/emoji_u1f508.svg

<?xml version="1.0" encoding="UTF-8"?>
<svg width="128" height="128" enable-background="new 0 0 128 128" xmlns="http://www.w3.org/2000/svg"><radialGradient id="b" cx="47.167" cy="37.739" r="64.296" gradientTransform="matrix(1 0 0 1.0016 0 -.1007)" gradientUnits="userSpaceOnUse"><stop stop-color="#64B5F6" offset="0"/><stop stop-color="#5FB2F5" offset=".1869"/><stop stop-color="#51A9F1" offset=".4057"/><stop stop-color="#3A9AEC" offset=".6394"/><stop stop-color="#1E88E5" offset=".8495"/><stop stop-color="#1E88E5" offset="1"/></radialGradient><path d="M64,92.04H36c-2.21,0-4-1.79-4-4.01V39.96c0-2.21,1.79-4.01,4-4.01h28V92.04z" fill="url(#b)"/><rect x="40" y="35.95" width="4" height="56.09" fill="#1E88E5"/><radialGradient id="a" cx="86" cy="8.656" r="105.05" gradientTransform="matrix(1 0 0 1.0016 0 -.1007)" gradientUnits="userSpaceOnUse"><stop stop-color="#BBDEFB" offset="0"/><stop stop-color="#B3DAFB" offset=".1183"/><stop stop-color="#9ED0FA" offset=".2989"/><stop stop-color="#7BC0F8" offset=".5193"/><stop stop-color="#4CAAF5" offset=".769"/><stop stop-color="#42A5F5" offset=".8153"/><stop stop-color="#2196F3" offset="1"/></radialGradient><path d="m84.8 6.26c-19.78 21.76-32.8 29.69-32.8 29.69v56.09s13.11 8.01 32.81 29.71c3.82 4.2 11.19 2.16 11.19-3.29v-108.94c0-5.46-7.37-7.47-11.2-3.26z" fill="url(#a)"/><g opacity=".2"><path d="m89.93 7c1.06 0 3.07 0.53 3.07 2.53v108.94c0 1.86-1.85 2.54-3.09 2.54-0.65 0-1.88-0.16-2.88-1.26-19.76-21.78-32.92-29.93-33.47-30.27l-0.72-0.44h-16.84c-0.55 0-1-0.45-1-1.01v-48.07c0-0.55 0.45-1.01 1-1.01h16.84l0.72-0.44c0.55-0.33 13.61-8.4 33.46-30.24 1.01-1.1 2.26-1.27 2.91-1.27m0-3c-1.83 0-3.71 0.71-5.12 2.26-19.79 21.76-32.81 29.69-32.81 29.69h-16c-2.21 0-4 1.79-4 4.01v48.08c0 2.21 1.79 4.01 4 4.01h16s13.11 8.01 32.81 29.71c1.4 1.54 3.28 2.25 5.1 2.25 3.13 0 6.09-2.08 6.09-5.54v-108.94c0-3.45-2.94-5.53-6.07-5.53z" fill="#424242"/></g></svg>

<svg width="128" height="128" style="enable-background:new 0 0 128 128;" xmlns="http://www.w3.org/2000/svg" xmlns:xlink="http://www.w3.org/1999/xlink">
  <radialGradient id="SVGID_1_" cx="47.1667" cy="37.7393" gradientTransform="matrix(1 0 0 1.0016 0 -0.1007)" gradientUnits="userSpaceOnUse" r="64.2964">
    <stop offset="0" style="stop-color:#64B5F6"/>
    <stop offset="0.1869" style="stop-color:#5FB2F5"/>
    <stop offset="0.4057" style="stop-color:#51A9F1"/>
    <stop offset="0.6394" style="stop-color:#3A9AEC"/>
    <stop offset="0.8495" style="stop-color:#1E88E5"/>
    <stop offset="1" style="stop-color:#1E88E5"/>
  </radialGradient>
  <path d="M64,92.04H36c-2.21,0-4-1.79-4-4.01V39.96c0-2.21,1.79-4.01,4-4.01h28V92.04z" style="fill:url(#SVGID_1_);"/>
  <rect height="56.09" style="fill:#1E88E5;" width="4" x="40" y="35.95"/>
  <radialGradient id="SVGID_2_" cx="86" cy="8.656" gradientTransform="matrix(1 0 0 1.0016 0 -0.1007)" gradientUnits="userSpaceOnUse" r="105.0515">
    <stop offset="0" style="stop-color:#BBDEFB"/>
    <stop offset="0.1183" style="stop-color:#B3DAFB"/>
    <stop offset="0.2989" style="stop-color:#9ED0FA"/>
    <stop offset="0.5193" style="stop-color:#7BC0F8"/>
    <stop offset="0.769" style="stop-color:#4CAAF5"/>
    <stop offset="0.8153" style="stop-color:#42A5F5"/>
    <stop offset="1" style="stop-color:#2196F3"/>
  </radialGradient>
  <path d="M84.8,6.26C65.02,28.02,52,35.95,52,35.95v56.09c0,0,13.11,8.01,32.81,29.71 c3.82,4.2,11.19,2.16,11.19-3.29c0-26.41,0-82.45,0-108.94C96,4.06,88.63,2.05,84.8,6.26z" style="fill:url(#SVGID_2_);"/>
  <g style="opacity:0.2;">
    <path d="M89.93,7C90.99,7,93,7.53,93,9.53v108.94c0,1.86-1.85,2.54-3.09,2.54c-0.65,0-1.88-0.16-2.88-1.26 C67.27,97.97,54.11,89.82,53.56,89.48l-0.72-0.44H52H36c-0.55,0-1-0.45-1-1.01V39.96c0-0.55,0.45-1.01,1-1.01h16h0.84l0.72-0.44 c0.55-0.33,13.61-8.4,33.46-30.24C88.03,7.17,89.28,7,89.93,7 M89.93,4c-1.83,0-3.71,0.71-5.12,2.26C65.02,28.02,52,35.95,52,35.95 H36c-2.21,0-4,1.79-4,4.01v48.08c0,2.21,1.79,4.01,4,4.01h16c0,0,13.11,8.01,32.81,29.71c1.4,1.54,3.28,2.25,5.1,2.25 c3.13,0,6.09-2.08,6.09-5.54c0-26.41,0-82.45,0-108.94C96,6.08,93.06,4,89.93,4L89.93,4z" style="fill:#424242;"/>
  </g>
</svg>
